!!!OTL: Waldlust.
!!!OTL-incipit: WAS KANN EINEN MEHR ERGOETZEN
!!!ARE: Europa, Mitteleuropa, Deutschland, Sachsan(!)
!!!SCT: Z1287
!!!TXL: @@DE
!!!YEM: Copyright 1995, estate of Helmut Schaffrath.
**kern	**text
*ICvox	*
*M2/4	*
*k[f#c#g#]	*
*A:	*
=1	=1
!LO:TX:a:t=Aus Sachſan.	!
{8a	Was
16aL	kann
16bJ	.
8cc#/	Ei-
8cc#/	-nen
=2	=2
8b/	mehr
8b/	er-
8a	-göʒ-
8e}	-ʒen,
=3	=3
{8cc#/	als
16cc#/L	ein
16ddJ	.
8ee/	an-
8ee/	-ge-
=4	=4
8dd/	-neh-
8dd/	-mer
4cc#/}	Wald,
=5	=5
{8a	wo
16aL	die
16bJ	.
8cc#/	Vöglein
8cc#/	.
=6	=6
8b/	lieblich
8b/	.
8a	ſchwätʒen
8e}	.
=7	=7
{8cc#/	in
16cc#/L	dem
16ddJ	.
8ee/	dunkeln
8ee/	.
=8	=8
8dd/	Aufent-
8dd/	.
4cc#/}	-halt;
=9	=9
{8ee/	fort
8ee/	mit
8.ff#/	dir,
16ee/	ſchön's
=10	=10
8dd/	Blumen-
8dd/	.
4ee/}	-feld,
=11	=11
{8cc#/	der
8cc#/	Wald
4dd/	iſt,
=12	=12
8cc#/	der
8cc#/	Wald
4b/}	iſt,
=13	=13
{8cc#/	der
8cc#/	Wald
8dd/	iſt
8dd/	mein
=14	=14
16ee/L	Luſt-
16ff#J	.
16ee/L	-ge-
16ddJ	.
4cc#/}	-ʒelt!
==	==
!!!AGN: Jaeger - Lied
!!!ONB: ESAC (Essen Associative Code) Database: ZUCCAL
!!!AMT: simple duple
!!!AIN: vox
!!!EED: Helmut Schaffrath
!!!EEV: 1.0
!!!GTL: VII. Jagd-, Bunkt- und GewerksLieder.
!!!URL-scan: https://www.digitale-sammlungen.de/de/view/bsb11160573?page=525
!!!ENC: Anna Maria Matuszewska
!!!EEV: 2025/02/06
*-	*-
